X: 3336
T: Belles Of Tipperary, The
R: reel
M: 4/4
K: Dmajor
DA,~A,2 DEFA|defe dB (3BBB|BAFA AB{Bc}BA|FEDE FEE2|
DA,~A,2 DEFA|defe dB (3BBB|~d3B ABdB|AFEG FED2:|
|:~a3b afdf|(3gfe fd cde2|(3gbg ef gbag|(3fff gf e4|
dB~B2 AF~F2|DF~F2 ABde|(3fff ec dBAF|GFEG FED2:|

